static/assets/images/flags/1x1/gr.svg

<svg height="512" width="512" xmlns="http://www.w3.org/2000/svg" xmlns:xlink="http://www.w3.org/1999/xlink"><clipPath id="a"><path d="m0 0h666v666h-666z"/></clipPath><g clip-path="url(#a)" transform="scale(.77)"><g fill-rule="evenodd" stroke-width="1pt"><path d="m0 0h999v74h-999z" fill="#0d5eaf"/><path d="m0 74h999v74h-999z" fill="#fff"/><path d="m0 148h999v74h-999z" fill="#0d5eaf"/><path d="m0 222h999v74h-999z" fill="#fff"/><path d="m0 296h999v74h-999z" fill="#0d5eaf"/><path d="m0 370h999v74h-999z" fill="#fff"/><path d="m0 444h999v74h-999z" fill="#0d5eaf"/><path d="m0 518h999v74h-999z" fill="#fff"/><path d="m0 592h999v74h-999zm0-592h370v370h-370z" fill="#0d5eaf"/><g fill="#fff"><path d="m148 0h74v370h-74z"/><path d="m0 148h370v74h-370z"/></g></g></g></svg>

<svg xmlns="http://www.w3.org/2000/svg" id="flag-icon-css-gr" width="512" height="512">
  <defs>
    <clipPath id="a">
      <path fill-opacity=".7" d="M0 0h666v666H0z"/>
    </clipPath>
  </defs>
  <g clip-path="url(#a)" transform="scale(.77)">
    <g fill-rule="evenodd" stroke-width="1pt">
      <path fill="#0d5eaf" d="M0 0h999v74H0z"/>
      <path fill="#fff" d="M0 74h999v74H0z"/>
      <path fill="#0d5eaf" d="M0 148h999v74H0z"/>
      <path fill="#fff" d="M0 222h999v74H0z"/>
      <path fill="#0d5eaf" d="M0 296h999v74H0z"/>
      <path fill="#fff" d="M0 370h999v74H0z"/>
      <path fill="#0d5eaf" d="M0 444h999v74H0z"/>
      <path fill="#fff" d="M0 518h999v74H0z"/>
      <path fill="#0d5eaf" d="M0 592h999v74H0zM0 0h370v370H0z"/>
      <g fill="#fff">
        <path d="M148 0h74v370h-74z"/>
        <path d="M0 148h370v74H0z"/>
      </g>
    </g>
  </g>
</svg>
